images/3234060.svg

<?xml version="1.0" encoding="UTF-8"?>
<svg xmlns="http://www.w3.org/2000/svg" xmlns:xlink="http://www.w3.org/1999/xlink" width="300pt" height="300pt" viewBox="0 0 300 300" version="1.1">
<defs>
<g>
<symbol overflow="visible" id="glyph0-0">
<path style="stroke:none;" d="M 0.453125 1.59375 L 0.453125 -6.34375 L 4.953125 -6.34375 L 4.953125 1.59375 Z M 0.953125 1.09375 L 4.453125 1.09375 L 4.453125 -5.84375 L 0.953125 -5.84375 Z M 0.953125 1.09375 "/>
</symbol>
<symbol overflow="visible" id="glyph0-1">
<path style="stroke:none;" d="M 0.890625 -6.5625 L 2.078125 -6.5625 L 4.984375 -1.078125 L 4.984375 -6.5625 L 5.84375 -6.5625 L 5.84375 0 L 4.65625 0 L 1.75 -5.484375 L 1.75 0 L 0.890625 0 Z M 0.890625 -6.5625 "/>
</symbol>
<symbol overflow="visible" id="glyph0-2">
<path style="stroke:none;" d="M 3.546875 -5.953125 C 2.898438 -5.953125 2.382812 -5.710938 2 -5.234375 C 1.625 -4.753906 1.4375 -4.101562 1.4375 -3.28125 C 1.4375 -2.445312 1.625 -1.789062 2 -1.3125 C 2.382812 -0.832031 2.898438 -0.59375 3.546875 -0.59375 C 4.191406 -0.59375 4.703125 -0.832031 5.078125 -1.3125 C 5.453125 -1.789062 5.640625 -2.445312 5.640625 -3.28125 C 5.640625 -4.101562 5.453125 -4.753906 5.078125 -5.234375 C 4.703125 -5.710938 4.191406 -5.953125 3.546875 -5.953125 Z M 3.546875 -6.6875 C 4.460938 -6.6875 5.195312 -6.375 5.75 -5.75 C 6.300781 -5.132812 6.578125 -4.3125 6.578125 -3.28125 C 6.578125 -2.238281 6.300781 -1.410156 5.75 -0.796875 C 5.195312 -0.179688 4.460938 0.125 3.546875 0.125 C 2.617188 0.125 1.878906 -0.179688 1.328125 -0.796875 C 0.773438 -1.410156 0.5 -2.238281 0.5 -3.28125 C 0.5 -4.3125 0.773438 -5.132812 1.328125 -5.75 C 1.878906 -6.375 2.617188 -6.6875 3.546875 -6.6875 Z M 3.546875 -6.6875 "/>
</symbol>
<symbol overflow="visible" id="glyph0-3">
<path style="stroke:none;" d="M 0.890625 -6.5625 L 1.765625 -6.5625 L 1.765625 -3.875 L 5 -3.875 L 5 -6.5625 L 5.890625 -6.5625 L 5.890625 0 L 5 0 L 5 -3.125 L 1.765625 -3.125 L 1.765625 0 L 0.890625 0 Z M 0.890625 -6.5625 "/>
</symbol>
</g>
</defs>
<g id="surface35453">
<rect x="0" y="0" width="300" height="300" style="fill:rgb(100%,100%,100%);fill-opacity:1;stroke:none;"/>
<path style="fill:none;stroke-width:1.2;stroke-linecap:butt;stroke-linejoin:miter;stroke:rgb(0%,0%,0%);stroke-opacity:1;stroke-miterlimit:10;" d="M 35.25 155.085938 L 46.398438 150.640625 "/>
<path style="fill:none;stroke-width:1.2;stroke-linecap:butt;stroke-linejoin:miter;stroke:rgb(0%,0%,100%);stroke-opacity:1;stroke-miterlimit:10;" d="M 46.398438 150.640625 L 57.546875 146.191406 "/>
<path style="fill:none;stroke-width:1.2;stroke-linecap:butt;stroke-linejoin:miter;stroke:rgb(0%,0%,100%);stroke-opacity:1;stroke-miterlimit:10;" d="M 57.546875 146.191406 L 59.265625 134.3125 "/>
<path style="fill:none;stroke-width:1.2;stroke-linecap:butt;stroke-linejoin:miter;stroke:rgb(0%,0%,0%);stroke-opacity:1;stroke-miterlimit:10;" d="M 59.265625 134.3125 L 60.988281 122.433594 "/>
<path style="fill:none;stroke-width:1.2;stroke-linecap:butt;stroke-linejoin:miter;stroke:rgb(0%,0%,100%);stroke-opacity:1;stroke-miterlimit:10;" d="M 57.546875 146.191406 L 66.972656 153.621094 "/>
<path style="fill:none;stroke-width:1.2;stroke-linecap:butt;stroke-linejoin:miter;stroke:rgb(0%,0%,0%);stroke-opacity:1;stroke-miterlimit:10;" d="M 66.972656 153.621094 L 76.398438 161.050781 "/>
<path style=" stroke:none;fill-rule:nonzero;fill:rgb(100%,100%,100%);fill-opacity:1;" d="M 54.546875 140.691406 L 61.546875 140.691406 L 61.546875 151.691406 L 54.546875 151.691406 Z M 54.546875 140.691406 "/>
<g style="fill:rgb(0%,0%,100%);fill-opacity:1;">
  <use xlink:href="#glyph0-1" x="54.546875" y="149.354492"/>
</g>
<path style="fill:none;stroke-width:1.2;stroke-linecap:butt;stroke-linejoin:miter;stroke:rgb(0%,0%,0%);stroke-opacity:1;stroke-miterlimit:10;" d="M 73.605469 160.644531 L 71.882812 172.523438 "/>
<path style="fill:none;stroke-width:1.2;stroke-linecap:butt;stroke-linejoin:miter;stroke:rgb(100%,0%,0%);stroke-opacity:1;stroke-miterlimit:10;" d="M 71.882812 172.523438 L 70.160156 184.402344 "/>
<path style="fill:none;stroke-width:1.2;stroke-linecap:butt;stroke-linejoin:miter;stroke:rgb(0%,0%,0%);stroke-opacity:1;stroke-miterlimit:10;" d="M 79.195312 161.453125 L 77.472656 173.332031 "/>
<path style="fill:none;stroke-width:1.2;stroke-linecap:butt;stroke-linejoin:miter;stroke:rgb(100%,0%,0%);stroke-opacity:1;stroke-miterlimit:10;" d="M 77.472656 173.332031 L 75.75 185.210938 "/>
<path style="fill:none;stroke-width:1.2;stroke-linecap:butt;stroke-linejoin:miter;stroke:rgb(0%,0%,0%);stroke-opacity:1;stroke-miterlimit:10;" d="M 76.398438 161.050781 L 98.695312 152.152344 "/>
<path style=" stroke:none;fill-rule:nonzero;fill:rgb(100%,100%,100%);fill-opacity:1;" d="M 68.957031 179.308594 L 76.957031 179.308594 L 76.957031 190.308594 L 68.957031 190.308594 Z M 68.957031 179.308594 "/>
<g style="fill:rgb(100%,0%,0%);fill-opacity:1;">
  <use xlink:href="#glyph0-2" x="68.957031" y="187.97168"/>
</g>
<path style="fill:none;stroke-width:1.2;stroke-linecap:butt;stroke-linejoin:miter;stroke:rgb(0%,0%,0%);stroke-opacity:1;stroke-miterlimit:10;" d="M 98.695312 152.152344 L 102.136719 128.394531 "/>
<path style="fill:none;stroke-width:1.2;stroke-linecap:butt;stroke-linejoin:miter;stroke:rgb(0%,0%,0%);stroke-opacity:1;stroke-miterlimit:10;" d="M 104.628906 150.585938 L 107.382812 131.582031 "/>
<path style="fill:none;stroke-width:1.2;stroke-linecap:butt;stroke-linejoin:miter;stroke:rgb(0%,0%,0%);stroke-opacity:1;stroke-miterlimit:10;" d="M 117.546875 167.011719 L 98.695312 152.152344 "/>
<path style="fill:none;stroke-width:1.2;stroke-linecap:butt;stroke-linejoin:miter;stroke:rgb(0%,0%,0%);stroke-opacity:1;stroke-miterlimit:10;" d="M 102.136719 128.394531 L 124.433594 119.496094 "/>
<path style="fill:none;stroke-width:1.2;stroke-linecap:butt;stroke-linejoin:miter;stroke:rgb(0%,0%,0%);stroke-opacity:1;stroke-miterlimit:10;" d="M 124.433594 119.496094 L 143.285156 134.359375 "/>
<path style="fill:none;stroke-width:1.2;stroke-linecap:butt;stroke-linejoin:miter;stroke:rgb(0%,0%,0%);stroke-opacity:1;stroke-miterlimit:10;" d="M 122.820312 125.417969 L 137.902344 137.308594 "/>
<path style="fill:none;stroke-width:1.2;stroke-linecap:butt;stroke-linejoin:miter;stroke:rgb(0%,0%,0%);stroke-opacity:1;stroke-miterlimit:10;" d="M 143.285156 134.359375 L 139.84375 158.113281 "/>
<path style="fill:none;stroke-width:1.2;stroke-linecap:butt;stroke-linejoin:miter;stroke:rgb(0%,0%,0%);stroke-opacity:1;stroke-miterlimit:10;" d="M 143.285156 134.359375 L 165.582031 125.460938 "/>
<path style="fill:none;stroke-width:1.2;stroke-linecap:butt;stroke-linejoin:miter;stroke:rgb(0%,0%,0%);stroke-opacity:1;stroke-miterlimit:10;" d="M 139.84375 158.113281 L 117.546875 167.011719 "/>
<path style="fill:none;stroke-width:1.2;stroke-linecap:butt;stroke-linejoin:miter;stroke:rgb(0%,0%,0%);stroke-opacity:1;stroke-miterlimit:10;" d="M 135.519531 153.757812 L 117.683594 160.875 "/>
<path style="fill:none;stroke-width:1.2;stroke-linecap:butt;stroke-linejoin:miter;stroke:rgb(0%,0%,0%);stroke-opacity:1;stroke-miterlimit:10;" d="M 165.582031 125.460938 L 184.433594 140.320312 "/>
<path style="fill:none;stroke-width:1.2;stroke-linecap:butt;stroke-linejoin:miter;stroke:rgb(0%,0%,0%);stroke-opacity:1;stroke-miterlimit:10;" d="M 170.960938 122.511719 L 186.042969 134.398438 "/>
<path style="fill:none;stroke-width:1.2;stroke-linecap:butt;stroke-linejoin:miter;stroke:rgb(0%,0%,0%);stroke-opacity:1;stroke-miterlimit:10;" d="M 169.023438 101.703125 L 165.582031 125.460938 "/>
<path style="fill:none;stroke-width:1.2;stroke-linecap:butt;stroke-linejoin:miter;stroke:rgb(0%,0%,0%);stroke-opacity:1;stroke-miterlimit:10;" d="M 184.433594 140.320312 L 206.730469 131.421875 "/>
<path style="fill:none;stroke-width:1.2;stroke-linecap:butt;stroke-linejoin:miter;stroke:rgb(0%,0%,0%);stroke-opacity:1;stroke-miterlimit:10;" d="M 206.730469 131.421875 L 210.171875 107.664062 "/>
<path style="fill:none;stroke-width:1.2;stroke-linecap:butt;stroke-linejoin:miter;stroke:rgb(0%,0%,0%);stroke-opacity:1;stroke-miterlimit:10;" d="M 212.664062 129.855469 L 215.417969 110.851562 "/>
<path style="fill:none;stroke-width:1.2;stroke-linecap:butt;stroke-linejoin:miter;stroke:rgb(0%,0%,0%);stroke-opacity:1;stroke-miterlimit:10;" d="M 225.582031 146.28125 L 206.730469 131.421875 "/>
<path style="fill:none;stroke-width:1.2;stroke-linecap:butt;stroke-linejoin:miter;stroke:rgb(0%,0%,0%);stroke-opacity:1;stroke-miterlimit:10;" d="M 210.171875 107.664062 L 191.316406 92.804688 "/>
<path style="fill:none;stroke-width:1.2;stroke-linecap:butt;stroke-linejoin:miter;stroke:rgb(0%,0%,0%);stroke-opacity:1;stroke-miterlimit:10;" d="M 210.171875 107.664062 L 221.320312 103.214844 "/>
<path style="fill:none;stroke-width:1.2;stroke-linecap:butt;stroke-linejoin:miter;stroke:rgb(0%,0%,100%);stroke-opacity:1;stroke-miterlimit:10;" d="M 221.320312 103.214844 L 232.464844 98.769531 "/>
<path style="fill:none;stroke-width:1.2;stroke-linecap:butt;stroke-linejoin:miter;stroke:rgb(0%,0%,0%);stroke-opacity:1;stroke-miterlimit:10;" d="M 191.316406 92.804688 L 169.023438 101.703125 "/>
<path style="fill:none;stroke-width:1.2;stroke-linecap:butt;stroke-linejoin:miter;stroke:rgb(0%,0%,0%);stroke-opacity:1;stroke-miterlimit:10;" d="M 191.183594 98.941406 L 173.347656 106.058594 "/>
<path style="fill:none;stroke-width:1.2;stroke-linecap:butt;stroke-linejoin:miter;stroke:rgb(0%,0%,100%);stroke-opacity:1;stroke-miterlimit:10;" d="M 232.464844 98.769531 L 241.894531 106.199219 "/>
<path style="fill:none;stroke-width:1.2;stroke-linecap:butt;stroke-linejoin:miter;stroke:rgb(0%,0%,0%);stroke-opacity:1;stroke-miterlimit:10;" d="M 241.894531 106.199219 L 251.320312 113.628906 "/>
<path style="fill:none;stroke-width:1.2;stroke-linecap:butt;stroke-linejoin:miter;stroke:rgb(0%,0%,100%);stroke-opacity:1;stroke-miterlimit:10;" d="M 230.855469 104.691406 L 238.398438 110.632812 "/>
<path style="fill:none;stroke-width:1.2;stroke-linecap:butt;stroke-linejoin:miter;stroke:rgb(0%,0%,0%);stroke-opacity:1;stroke-miterlimit:10;" d="M 238.398438 110.632812 L 245.9375 116.578125 "/>
<path style=" stroke:none;fill-rule:nonzero;fill:rgb(100%,100%,100%);fill-opacity:1;" d="M 229.464844 93.269531 L 236.464844 93.269531 L 236.464844 104.269531 L 229.464844 104.269531 Z M 229.464844 93.269531 "/>
<g style="fill:rgb(0%,0%,100%);fill-opacity:1;">
  <use xlink:href="#glyph0-1" x="229.464844" y="101.932617"/>
</g>
<path style="fill:none;stroke-width:1.2;stroke-linecap:butt;stroke-linejoin:miter;stroke:rgb(0%,0%,0%);stroke-opacity:1;stroke-miterlimit:10;" d="M 251.320312 113.628906 L 249.597656 125.507812 "/>
<path style="fill:none;stroke-width:1.2;stroke-linecap:butt;stroke-linejoin:miter;stroke:rgb(0%,0%,100%);stroke-opacity:1;stroke-miterlimit:10;" d="M 249.597656 125.507812 L 247.878906 137.382812 "/>
<path style="fill:none;stroke-width:1.2;stroke-linecap:butt;stroke-linejoin:miter;stroke:rgb(0%,0%,100%);stroke-opacity:1;stroke-miterlimit:10;" d="M 247.878906 137.382812 L 236.730469 141.832031 "/>
<path style="fill:none;stroke-width:1.2;stroke-linecap:butt;stroke-linejoin:miter;stroke:rgb(0%,0%,0%);stroke-opacity:1;stroke-miterlimit:10;" d="M 236.730469 141.832031 L 225.582031 146.28125 "/>
<path style="fill:none;stroke-width:1.2;stroke-linecap:butt;stroke-linejoin:miter;stroke:rgb(0%,0%,100%);stroke-opacity:1;stroke-miterlimit:10;" d="M 243.554688 133.027344 L 234.636719 136.585938 "/>
<path style="fill:none;stroke-width:1.2;stroke-linecap:butt;stroke-linejoin:miter;stroke:rgb(0%,0%,0%);stroke-opacity:1;stroke-miterlimit:10;" d="M 234.636719 136.585938 L 225.71875 140.144531 "/>
<path style=" stroke:none;fill-rule:nonzero;fill:rgb(100%,100%,100%);fill-opacity:1;" d="M 244.878906 131.882812 L 251.878906 131.882812 L 251.878906 142.882812 L 244.878906 142.882812 Z M 244.878906 131.882812 "/>
<g style="fill:rgb(0%,0%,100%);fill-opacity:1;">
  <use xlink:href="#glyph0-1" x="244.878906" y="140.545898"/>
</g>
<path style="fill:none;stroke-width:1.2;stroke-linecap:butt;stroke-linejoin:miter;stroke:rgb(0%,0%,0%);stroke-opacity:1;stroke-miterlimit:10;" d="M 225.582031 146.28125 L 223.859375 158.160156 "/>
<path style="fill:none;stroke-width:1.2;stroke-linecap:butt;stroke-linejoin:miter;stroke:rgb(0%,0%,100%);stroke-opacity:1;stroke-miterlimit:10;" d="M 223.859375 158.160156 L 222.140625 170.039062 "/>
<path style="fill:none;stroke-width:1.2;stroke-linecap:butt;stroke-linejoin:miter;stroke:rgb(0%,0%,100%);stroke-opacity:1;stroke-miterlimit:10;" d="M 222.140625 170.039062 L 231.566406 177.46875 "/>
<path style="fill:none;stroke-width:1.2;stroke-linecap:butt;stroke-linejoin:miter;stroke:rgb(0%,0%,0%);stroke-opacity:1;stroke-miterlimit:10;" d="M 231.566406 177.46875 L 240.992188 184.898438 "/>
<path style=" stroke:none;fill-rule:nonzero;fill:rgb(100%,100%,100%);fill-opacity:1;" d="M 215.140625 164.539062 L 229.140625 164.539062 L 229.140625 175.539062 L 215.140625 175.539062 Z M 215.140625 164.539062 "/>
<g style="fill:rgb(0%,0%,100%);fill-opacity:1;">
  <use xlink:href="#glyph0-1" x="215.140625" y="173.202148"/>
  <use xlink:href="#glyph0-3" x="222.118164" y="173.202148"/>
</g>
<path style="fill:none;stroke-width:1.2;stroke-linecap:butt;stroke-linejoin:miter;stroke:rgb(0%,0%,0%);stroke-opacity:1;stroke-miterlimit:10;" d="M 240.992188 184.898438 L 264.75 188.339844 "/>
<path style="fill:none;stroke-width:1.2;stroke-linecap:butt;stroke-linejoin:miter;stroke:rgb(0%,0%,0%);stroke-opacity:1;stroke-miterlimit:10;" d="M 249.890625 207.195312 L 240.992188 184.898438 "/>
<path style="fill:none;stroke-width:1.2;stroke-linecap:butt;stroke-linejoin:miter;stroke:rgb(0%,0%,0%);stroke-opacity:1;stroke-miterlimit:10;" d="M 264.75 188.339844 L 249.890625 207.195312 "/>
</g>
</svg>

<svg xmlns="http://www.w3.org/2000/svg" xmlns:xlink="http://www.w3.org/1999/xlink" width="300pt" height="300pt" viewBox="0 0 300 300"><defs><symbol overflow="visible"><path d="M.453 1.594v-7.938h4.5v7.938zm.5-.5h3.5v-6.938h-3.5zm0 0"/></symbol><symbol overflow="visible" id="a"><path d="M.89-6.563H2.08l2.906 5.485v-5.484h.86V0H4.656L1.75-5.484V0H.89zm0 0"/></symbol><symbol overflow="visible" id="b"><path d="M3.547-5.953c-.65 0-1.164.242-1.547.72-.375.48-.563 1.13-.563 1.952 0 .835.188 1.49.563 1.967.383.48.898.72 1.547.72.644 0 1.156-.24 1.53-.72.376-.476.564-1.132.564-1.968 0-.822-.187-1.474-.562-1.954-.375-.477-.887-.72-1.53-.72zm0-.734c.914 0 1.648.312 2.203.937.55.617.828 1.438.828 2.47 0 1.042-.277 1.87-.828 2.483-.555.617-1.29.922-2.203.922-.93 0-1.668-.305-2.22-.922C.774-1.41.5-2.237.5-3.28c0-1.033.273-1.853.828-2.47.55-.625 1.29-.938 2.22-.938zm0 0"/></symbol><symbol overflow="visible" id="c"><path d="M.89-6.563h.876v2.688H5v-2.688h.89V0H5v-3.125H1.766V0H.89zm0 0"/></symbol></defs><g><path fill="#fff" d="M0 0h300v300H0z"/><path d="M35.25 155.086l11.148-4.445" stroke-width="1.2" stroke="#000" stroke-miterlimit="10" fill="none"/><path d="M46.398 150.64l11.15-4.45M57.547 146.19l1.72-11.877" stroke-width="1.2" stroke="#00f" stroke-miterlimit="10" fill="none"/><path d="M59.266 134.313l1.722-11.88" stroke-width="1.2" stroke="#000" stroke-miterlimit="10" fill="none"/><path d="M57.547 146.19l9.426 7.43" stroke-width="1.2" stroke="#00f" stroke-miterlimit="10" fill="none"/><path d="M66.973 153.62l9.425 7.43" stroke-width="1.2" stroke="#000" stroke-miterlimit="10" fill="none"/><path d="M54.547 140.69h7v11h-7zm0 0" fill="#fff"/><use xlink:href="#a" x="54.547" y="149.354" fill="#00f"/><path d="M73.605 160.645l-1.722 11.878" stroke-width="1.2" stroke="#000" stroke-miterlimit="10" fill="none"/><path d="M71.883 172.523l-1.723 11.88" stroke-width="1.2" stroke="#f00" stroke-miterlimit="10" fill="none"/><path d="M79.195 161.453l-1.722 11.88" stroke-width="1.2" stroke="#000" stroke-miterlimit="10" fill="none"/><path d="M77.473 173.332l-1.723 11.88" stroke-width="1.2" stroke="#f00" stroke-miterlimit="10" fill="none"/><path d="M76.398 161.05l22.297-8.898" stroke-width="1.2" stroke="#000" stroke-miterlimit="10" fill="none"/><path d="M68.957 179.31h8v11h-8zm0 0" fill="#fff"/><use xlink:href="#b" x="68.957" y="187.972" fill="#f00"/><path d="M98.695 152.152l3.442-23.757M104.63 150.586l2.753-19.004M117.547 167.012l-18.852-14.86M102.137 128.395l22.297-8.9M124.434 119.496l18.85 14.863M122.82 125.418l15.082 11.89M143.285 134.36l-3.44 23.753M143.285 134.36l22.297-8.9M139.844 158.113l-22.297 8.9M135.52 153.758l-17.836 7.117M165.582 125.46l18.852 14.86M170.96 122.512l15.083 11.886M169.023 101.703l-3.44 23.758M184.434 140.32l22.296-8.898M206.73 131.422l3.442-23.758M212.664 129.855l2.754-19.003M225.582 146.28l-18.852-14.858M210.172 107.664l-18.856-14.86M210.172 107.664l11.148-4.45" stroke-width="1.2" stroke="#000" stroke-miterlimit="10" fill="none"/><path d="M221.32 103.215l11.145-4.445" stroke-width="1.2" stroke="#00f" stroke-miterlimit="10" fill="none"/><path d="M191.316 92.805l-22.293 8.898M191.184 98.94l-17.836 7.12" stroke-width="1.2" stroke="#000" stroke-miterlimit="10" fill="none"/><path d="M232.465 98.77l9.43 7.43" stroke-width="1.2" stroke="#00f" stroke-miterlimit="10" fill="none"/><path d="M241.895 106.2l9.425 7.43" stroke-width="1.2" stroke="#000" stroke-miterlimit="10" fill="none"/><path d="M230.855 104.69l7.543 5.943" stroke-width="1.2" stroke="#00f" stroke-miterlimit="10" fill="none"/><path d="M238.398 110.633l7.54 5.945" stroke-width="1.2" stroke="#000" stroke-miterlimit="10" fill="none"/><path d="M229.465 93.27h7v11h-7zm0 0" fill="#fff"/><use xlink:href="#a" x="229.465" y="101.933" fill="#00f"/><path d="M251.32 113.63l-1.722 11.878" stroke-width="1.2" stroke="#000" stroke-miterlimit="10" fill="none"/><path d="M249.598 125.508l-1.72 11.875M247.88 137.383l-11.15 4.45" stroke-width="1.2" stroke="#00f" stroke-miterlimit="10" fill="none"/><path d="M236.73 141.832l-11.148 4.45" stroke-width="1.2" stroke="#000" stroke-miterlimit="10" fill="none"/><path d="M243.555 133.027l-8.918 3.56" stroke-width="1.2" stroke="#00f" stroke-miterlimit="10" fill="none"/><path d="M234.637 136.586l-8.918 3.56" stroke-width="1.2" stroke="#000" stroke-miterlimit="10" fill="none"/><path d="M244.88 131.883h7v11h-7zm0 0" fill="#fff"/><use xlink:href="#a" x="244.879" y="140.546" fill="#00f"/><path d="M225.582 146.28l-1.723 11.88" stroke-width="1.2" stroke="#000" stroke-miterlimit="10" fill="none"/><path d="M223.86 158.16l-1.72 11.88M222.14 170.04l9.426 7.43" stroke-width="1.2" stroke="#00f" stroke-miterlimit="10" fill="none"/><path d="M231.566 177.47l9.426 7.428" stroke-width="1.2" stroke="#000" stroke-miterlimit="10" fill="none"/><path d="M215.14 164.54h14v11h-14zm0 0" fill="#fff"/><g fill="#00f"><use xlink:href="#a" x="215.141" y="173.202"/><use xlink:href="#c" x="222.118" y="173.202"/></g><path d="M240.992 184.898l23.758 3.442M249.89 207.195l-8.898-22.297M264.75 188.34l-14.86 18.855" stroke-width="1.2" stroke="#000" stroke-miterlimit="10" fill="none"/></g></svg>
